icons/src/map.svg

<!--Generator: Apple Native CoreSVG 341-->
<!DOCTYPE svg  PUBLIC '-//W3C//DTD SVG 1.1//EN'  'http://www.w3.org/Graphics/SVG/1.1/DTD/svg11.dtd'>
<svg version="1.1" viewBox="0 0 20.674 19.268" xmlns="http://www.w3.org/2000/svg">
 <rect width="20.674" height="19.268" opacity="0"/>
 <path d="m1.1035 18.887c0.24414 0 0.49804-0.0879 0.81054-0.2637l4.9707-2.6757 5.4004 3.0273c0.3515 0.1953 0.7324 0.293 1.0937 0.293 0.3418 0 0.6836-0.0879 0.9766-0.2539l5.1074-2.9004c0.5859-0.3223 0.8496-0.791 0.8496-1.4453v-13.154c0-0.72265-0.4004-1.123-1.1035-1.123-0.2442 0-0.4981 0.078125-0.8203 0.25391l-5.1758 2.8809-5.3027-3.252c-0.30274-0.17578-0.64454-0.27344-0.98633-0.27344-0.35156 0-0.70313 0.097656-1.0059 0.27344l-5.0781 2.8906c-0.57617 0.33203-0.83984 0.80078-0.83984 1.4551v13.135c0 0.7227 0.40039 1.1328 1.1035 1.1328zm5.1465-4.4922-4.4043 2.4219c-0.04882 0.0195-0.09765 0.0488-0.14648 0.0488-0.07813 0-0.12695-0.0586-0.12695-0.1562v-11.709c0-0.23438 0.08789-0.40039 0.32226-0.53711l4.0039-2.3438c0.12695-0.06836 0.23437-0.12695 0.35156-0.19531zm1.5723 0.1563v-12.422c0.09765 0.05859 0.21484 0.11718 0.3125 0.17578l4.3554 2.6562v12.207c-0.1367-0.0782-0.2832-0.1465-0.4297-0.2246zm6.2402 2.793v-12.481l4.4043-2.4023c0.0488-0.0293 0.0977-0.04883 0.1367-0.04883 0.0879 0 0.1367 0.05859 0.1367 0.15625v11.709c0 0.2442-0.0976 0.4102-0.3222 0.5469l-3.916 2.2754c-0.1465 0.0879-0.293 0.1758-0.4395 0.2442z" fill="#fff"/>
</svg>

<?xml version="1.0" encoding="UTF-8"?>
<!--Generator: Apple Native CoreSVG 341-->
<!DOCTYPE svg
PUBLIC "-//W3C//DTD SVG 1.1//EN"
       "http://www.w3.org/Graphics/SVG/1.1/DTD/svg11.dtd">
<svg version="1.1" xmlns="http://www.w3.org/2000/svg" xmlns:xlink="http://www.w3.org/1999/xlink" viewBox="0 0 20.6738 19.2676">
 <g>
  <rect height="19.2676" opacity="0" width="20.6738" x="0" y="0"/>
  <path d="M1.10352 18.8867C1.34766 18.8867 1.60156 18.7988 1.91406 18.623L6.88477 15.9473L12.2852 18.9746C12.6367 19.1699 13.0176 19.2676 13.3789 19.2676C13.7207 19.2676 14.0625 19.1797 14.3555 19.0137L19.4629 16.1133C20.0488 15.791 20.3125 15.3223 20.3125 14.668L20.3125 1.51367C20.3125 0.791016 19.9121 0.390625 19.209 0.390625C18.9648 0.390625 18.7109 0.46875 18.3887 0.644531L13.2129 3.52539L7.91016 0.273438C7.60742 0.0976562 7.26562 0 6.92383 0C6.57227 0 6.2207 0.0976562 5.91797 0.273438L0.839844 3.16406C0.263672 3.49609 0 3.96484 0 4.61914L0 17.7539C0 18.4766 0.400391 18.8867 1.10352 18.8867ZM6.25 14.3945L1.8457 16.8164C1.79688 16.8359 1.74805 16.8652 1.69922 16.8652C1.62109 16.8652 1.57227 16.8066 1.57227 16.709L1.57227 5C1.57227 4.76562 1.66016 4.59961 1.89453 4.46289L5.89844 2.11914C6.02539 2.05078 6.13281 1.99219 6.25 1.92383ZM7.82227 14.5508L7.82227 2.12891C7.91992 2.1875 8.03711 2.24609 8.13477 2.30469L12.4902 4.96094L12.4902 17.168C12.3535 17.0898 12.207 17.0215 12.0605 16.9434ZM14.0625 17.3438L14.0625 4.86328L18.4668 2.46094C18.5156 2.43164 18.5645 2.41211 18.6035 2.41211C18.6914 2.41211 18.7402 2.4707 18.7402 2.56836L18.7402 14.2773C18.7402 14.5215 18.6426 14.6875 18.418 14.8242L14.502 17.0996C14.3555 17.1875 14.209 17.2754 14.0625 17.3438Z" fill="white"/>
 </g>
</svg>
